lib/preview/nrk-logo-preview-nrk-troms-title-below.svg

<svg width="47" height="41" viewBox="0 0 47 41" fill="none" xmlns="http://www.w3.org/2000/svg">
<path d="M0 17.9663V5.96737H4V17.9663H0ZM9.24381 7.87706L11.5081 17.9663H7.19917L4.49549 5.96737H6.91217C7.46635 5.96018 8.00406 6.15553 8.4245 6.51667C8.84562 6.86266 9.08495 7.34298 9.24381 7.87706ZM12 17.9663V5.96737H16V17.9663H12ZM19.0105 10.5304C18.5862 10.5345 18.1687 10.4235 17.8025 10.2092C17.4412 10.0004 17.1411 9.70024 16.9323 9.33888C16.7178 8.97261 16.6068 8.55504 16.611 8.1306C16.6061 7.70874 16.7172 7.29366 16.9323 6.9307C17.1433 6.57327 17.4431 6.27637 17.8025 6.0688C18.1689 5.85478 18.5862 5.74379 19.0105 5.74766C19.4322 5.74312 19.8471 5.85421 20.2102 6.0688C20.566 6.27819 20.8626 6.57484 21.072 6.9307C21.2868 7.29376 21.3979 7.70877 21.3933 8.1306C21.3973 8.555 21.2863 8.9725 21.072 9.33888C20.8649 9.69865 20.5679 9.99856 20.2102 10.2092C19.8471 10.4243 19.4324 10.5354 19.0105 10.5304ZM22 17.9663V5.96737H26V17.9663H22ZM30.9737 12.5245C30.9848 12.5362 31.0693 12.6742 31.2272 12.9385C31.3851 13.2029 31.5906 13.541 31.8439 13.9526C32.0974 14.364 32.3649 14.8005 32.6463 15.2623C32.9278 15.724 33.1926 16.1606 33.4408 16.5721C33.6881 16.9835 33.9697 17.4482 34.2857 17.9663H29.9598C29.6893 17.5269 29.4441 17.1297 29.2245 16.7748C29.0048 16.4199 28.7713 16.0369 28.5238 15.6256C28.2758 15.2148 28.0306 14.8148 27.7882 14.4257C27.5458 14.0367 27.3375 13.6959 27.1633 13.4033C26.9883 13.1106 26.8671 12.9134 26.7997 12.8118C26.6325 12.5597 26.5336 12.2686 26.5127 11.9668C26.5294 11.6772 26.6226 11.3973 26.7828 11.1554C26.8503 11.0427 26.9743 10.8427 27.1545 10.5554C27.3348 10.2681 27.546 9.92733 27.7882 9.533C28.0304 9.13867 28.2756 8.73588 28.5238 8.32465C28.772 7.91342 29.0055 7.52751 29.2245 7.16698C29.4445 6.80683 29.6897 6.40686 29.9598 5.96709H34.2857L30.9396 11.4258C30.8361 11.5878 30.7777 11.7746 30.7706 11.9668C30.7818 12.1686 30.8528 12.3626 30.9737 12.5245Z" fill="white"/>
<g clip-path="url(#clip0_5919_2881)">
<path d="M5.63625 24.4538V34.95H3.86437V24.4538H0V22.9688H9.48375V24.4538H5.63625ZM12.9431 26.2847C12.6281 26.3691 12.33 26.4984 12.0487 26.6728C11.7675 26.8472 11.5031 27.0581 11.2556 27.3056C11.2163 27.345 11.1769 27.39 11.1375 27.4322V26.175L9.41625 26.4281V34.95H11.1375V28.5741C11.2669 28.4841 11.3991 28.3997 11.5341 28.3266C11.7084 28.2309 11.8828 28.1494 12.0572 28.0819C12.2316 28.0144 12.4087 27.9553 12.5887 27.9047C12.7687 27.8541 12.9572 27.8175 13.1541 27.795C13.3509 27.7725 13.5562 27.7669 13.77 27.7781L13.9725 26.1919C13.6012 26.1694 13.2581 26.2003 12.9431 26.2847ZM22.8656 28.2253C23.2144 28.8834 23.3888 29.6569 23.3888 30.5456C23.3888 31.4794 23.2003 32.2894 22.8234 32.9756C22.4466 33.6619 21.9206 34.1906 21.2456 34.5619C20.5706 34.9331 19.7944 35.1187 18.9169 35.1187C18.0394 35.1187 17.3306 34.9444 16.6894 34.5956C16.0481 34.2469 15.5559 33.7378 15.2128 33.0684C14.8697 32.3991 14.6981 31.6031 14.6981 30.6806C14.6981 29.7581 14.8809 28.9594 15.2466 28.2844C15.6122 27.6094 16.1241 27.0862 16.7822 26.715C17.4403 26.3438 18.2081 26.1581 19.0856 26.1581C19.9631 26.1581 20.7253 26.3381 21.3722 26.6981C22.0191 27.0581 22.5169 27.5672 22.8656 28.2253ZM21.6 30.5794C21.6 30.1181 21.5494 29.6991 21.4481 29.3222C21.3469 28.9453 21.1922 28.6219 20.9841 28.3519C20.7759 28.0819 20.5172 27.8766 20.2078 27.7359C19.8984 27.5953 19.53 27.525 19.1025 27.525C18.5625 27.525 18.0984 27.6375 17.7103 27.8625C17.3222 28.0875 17.0212 28.425 16.8075 28.875C16.5938 29.325 16.4869 29.8931 16.4869 30.5794C16.4869 31.2656 16.5938 31.8619 16.8075 32.3344C17.0212 32.8069 17.3137 33.1613 17.685 33.3975C18.0562 33.6338 18.495 33.7519 19.0012 33.7519C19.5075 33.7519 19.9575 33.6366 20.3512 33.4059C20.745 33.1753 21.0516 32.8238 21.2709 32.3513C21.4903 31.8787 21.6 31.2881 21.6 30.5794ZM37.1419 26.5125C36.7369 26.2763 36.2362 26.1581 35.64 26.1581C35.1787 26.1581 34.7344 26.2341 34.3069 26.3859C33.8794 26.5378 33.4744 26.7544 33.0919 27.0356C32.8837 27.1875 32.6841 27.3591 32.4928 27.5419C32.2959 27.0947 32.0091 26.7544 31.6238 26.5294C31.2188 26.2931 30.7125 26.175 30.105 26.175C29.655 26.175 29.2134 26.2509 28.7803 26.4028C28.3472 26.5547 27.9394 26.7684 27.5569 27.0441C27.4359 27.1312 27.3178 27.2269 27.2025 27.3253V26.175L25.4812 26.4281V34.95H27.2025V28.5319C27.4078 28.3997 27.6187 28.2759 27.8353 28.1747C28.1109 28.0453 28.3894 27.9469 28.6706 27.8794C28.9519 27.8119 29.2219 27.7781 29.4806 27.7781C29.7731 27.7781 30.0178 27.8203 30.2147 27.9047C30.4116 27.9891 30.5775 28.1128 30.7125 28.2759C30.8475 28.4391 30.9459 28.6528 31.0078 28.9172C31.0697 29.1816 31.1006 29.4881 31.1006 29.8369V34.95H32.8219V29.4825C32.8219 29.1309 32.7994 28.8103 32.7572 28.5178C32.9569 28.3884 33.1566 28.2703 33.3619 28.1662C33.6319 28.0312 33.9075 27.93 34.1887 27.8625C34.47 27.795 34.7456 27.7613 35.0156 27.7613C35.2856 27.7613 35.5387 27.8034 35.7412 27.8878C35.9438 27.9722 36.1125 28.0959 36.2475 28.2591C36.3825 28.4222 36.4809 28.6359 36.5428 28.9003C36.6047 29.1647 36.6356 29.4713 36.6356 29.82V34.95H38.3569V29.4656C38.3569 28.7006 38.2556 28.0763 38.0531 27.5925C37.8506 27.1088 37.5469 26.7488 37.1419 26.5125ZM46.6341 31.7016C46.5384 31.4597 46.4062 31.2487 46.2375 31.0687C46.0687 30.8888 45.8719 30.7341 45.6469 30.6047C45.4219 30.4753 45.1856 30.3656 44.9381 30.2756C44.7581 30.2194 44.5809 30.1603 44.4066 30.0984C44.2322 30.0366 44.0578 29.9803 43.8834 29.9297C43.7091 29.8791 43.5403 29.8256 43.3772 29.7694C43.2141 29.7131 43.065 29.6513 42.93 29.5838C42.7837 29.505 42.6516 29.4206 42.5334 29.3306C42.4153 29.2406 42.3197 29.1337 42.2466 29.01C42.1734 28.8863 42.1369 28.7456 42.1369 28.5881C42.1369 28.4081 42.1763 28.2534 42.255 28.1241C42.3338 27.9947 42.4519 27.885 42.6094 27.795C42.7669 27.705 42.9553 27.6375 43.1747 27.5925C43.3941 27.5475 43.6444 27.525 43.9256 27.525C44.0494 27.525 44.1844 27.5306 44.3306 27.5419C44.4769 27.5531 44.6372 27.5728 44.8116 27.6009C44.9859 27.6291 45.1603 27.6656 45.3347 27.7106C45.5091 27.7556 45.6862 27.8063 45.8662 27.8625C46.0462 27.9187 46.2094 27.9806 46.3556 28.0481L46.4738 26.6813C46.26 26.5912 46.0491 26.5125 45.8409 26.445C45.6328 26.3775 45.4219 26.3213 45.2081 26.2763C44.9944 26.2313 44.7834 26.2003 44.5753 26.1834C44.3672 26.1666 44.1619 26.1581 43.9594 26.1581C43.4531 26.1581 42.9919 26.2116 42.5756 26.3184C42.1594 26.4253 41.7966 26.5828 41.4872 26.7909C41.1778 26.9991 40.9388 27.2634 40.77 27.5841C40.6012 27.9047 40.5169 28.2844 40.5169 28.7231C40.5169 29.0381 40.5619 29.3166 40.6519 29.5584C40.7419 29.8003 40.86 30.0056 41.0063 30.1744C41.1525 30.3431 41.3241 30.4922 41.5209 30.6216C41.7178 30.7509 41.9287 30.8606 42.1537 30.9506C42.2775 30.9956 42.4069 31.0406 42.5419 31.0856C42.6769 31.1306 42.8091 31.1728 42.9384 31.2122C43.0678 31.2516 43.1944 31.2909 43.3181 31.3303C43.4419 31.3697 43.5628 31.4091 43.6809 31.4484C43.7991 31.4878 43.9144 31.5244 44.0269 31.5581C44.1844 31.6144 44.3306 31.6791 44.4656 31.7522C44.6006 31.8253 44.7159 31.9041 44.8116 31.9884C44.9072 32.0728 44.9803 32.1712 45.0309 32.2837C45.0816 32.3962 45.1069 32.52 45.1069 32.655C45.1069 32.9362 45.0141 33.1584 44.8284 33.3216C44.6428 33.4847 44.4009 33.6 44.1028 33.6675C43.8047 33.735 43.4869 33.7688 43.1494 33.7688C42.9694 33.7688 42.7697 33.7547 42.5503 33.7266C42.3309 33.6984 42.1003 33.6591 41.8584 33.6084C41.6166 33.5578 41.3691 33.4959 41.1159 33.4228C40.8628 33.3497 40.6069 33.2681 40.3481 33.1781L40.4156 34.6125C40.7081 34.7138 40.9753 34.7953 41.2172 34.8572C41.4591 34.9191 41.6897 34.9725 41.9091 35.0175C42.1284 35.0625 42.3422 35.0906 42.5503 35.1019C42.7584 35.1131 42.9694 35.1187 43.1831 35.1187C43.6781 35.1187 44.145 35.0709 44.5838 34.9753C45.0225 34.8797 45.405 34.7306 45.7313 34.5281C46.0575 34.3256 46.3134 34.0612 46.4991 33.735C46.6847 33.4087 46.7775 33.0206 46.7775 32.5706C46.7775 32.2331 46.7297 31.9434 46.6341 31.7016Z" fill="white"/>
</g>
<defs>
<clipPath id="clip0_5919_2881">
<rect width="46.7775" height="12.15" fill="white" transform="translate(0 22.9688)"/>
</clipPath>
</defs>
</svg>

<svg xmlns="http://www.w3.org/2000/svg" viewBox="0 0 47 41"><path fill="#fff" d="M0 17.966V5.967h4v12H0ZM9.244 7.877l2.264 10.09H7.2l-2.704-12h2.417a2.276 2.276 0 0 1 1.513.55c.42.346.66.826.819 1.36ZM12 17.967v-12h4v12h-4Zm7.01-7.437a2.381 2.381 0 0 1-2.078-1.192 2.345 2.345 0 0 1-.321-1.207 2.301 2.301 0 0 1 .321-1.2 2.41 2.41 0 0 1 3.278-.862c.356.21.653.506.862.862.215.363.326.778.321 1.2a2.35 2.35 0 0 1-.321 1.208 2.4 2.4 0 0 1-.862.87 2.3 2.3 0 0 1-1.2.321ZM22 17.966V5.967h4v12h-4Zm8.974-5.442c.01.012.095.15.253.415.158.264.364.602.617 1.014a309.436 309.436 0 0 1 1.597 2.62c.247.41.529.875.845 1.393H29.96c-.27-.44-.516-.836-.736-1.191-.22-.355-.453-.738-.7-1.15-.248-.41-.493-.81-.736-1.2a60.12 60.12 0 0 1-.625-1.022 18.04 18.04 0 0 0-.363-.591 1.747 1.747 0 0 1-.287-.845c.016-.29.11-.57.27-.812.067-.112.191-.312.371-.6a182.106 182.106 0 0 0 1.37-2.23l.7-1.158.736-1.2h4.326l-3.346 5.459a1.079 1.079 0 0 0-.17.54c.012.203.083.397.204.559Z"/><g clip-path="url(#a)"><path fill="#fff" d="M5.636 24.454V34.95H3.864V24.454H0v-1.485h9.484v1.485H5.636Zm7.307 1.83a3.32 3.32 0 0 0-.894.389 4.404 4.404 0 0 0-.793.633c-.04.039-.08.084-.119.126v-1.257l-1.72.253v8.522h1.72v-6.376a4.214 4.214 0 0 1 .92-.492 5.88 5.88 0 0 1 .532-.177 3.594 3.594 0 0 1 1.181-.127l.203-1.586a3.21 3.21 0 0 0-1.03.093Zm9.923 1.941c.348.658.523 1.432.523 2.32 0 .934-.189 1.744-.566 2.43a3.93 3.93 0 0 1-1.577 1.587c-.675.371-1.452.557-2.33.557-.877 0-1.585-.175-2.227-.523a3.522 3.522 0 0 1-1.476-1.528c-.343-.669-.515-1.465-.515-2.387 0-.923.183-1.722.549-2.397a3.891 3.891 0 0 1 1.535-1.569c.658-.371 1.426-.557 2.304-.557.877 0 1.64.18 2.286.54.647.36 1.145.87 1.494 1.527ZM21.6 30.58c0-.46-.05-.88-.152-1.257a2.728 2.728 0 0 0-.464-.97 2.025 2.025 0 0 0-.776-.616c-.31-.14-.678-.211-1.105-.211-.54 0-1.005.113-1.393.338-.388.224-.689.562-.902 1.012-.214.45-.321 1.018-.321 1.704 0 .687.107 1.283.32 1.755.214.473.507.827.878 1.063.371.237.81.355 1.316.355a2.62 2.62 0 0 0 1.35-.346c.394-.23.7-.582.92-1.055.22-.472.329-1.063.329-1.772Zm15.542-4.067c-.405-.236-.906-.354-1.502-.354-.461 0-.906.076-1.333.228a4.704 4.704 0 0 0-1.215.65 5.95 5.95 0 0 0-.6.506c-.196-.447-.483-.788-.868-1.013-.405-.236-.912-.354-1.519-.354-.45 0-.892.076-1.325.228a4.802 4.802 0 0 0-1.578.922v-1.15l-1.72.253v8.522h1.72v-6.418c.206-.132.417-.256.633-.357.276-.13.554-.228.836-.296a3.47 3.47 0 0 1 .81-.1c.292 0 .537.041.734.126.197.084.363.208.497.37.136.164.234.378.296.642.062.265.093.571.093.92v5.113h1.72v-5.468c0-.351-.022-.672-.064-.964.2-.13.4-.248.605-.352a3.86 3.86 0 0 1 .827-.303c.281-.068.557-.102.827-.102.27 0 .523.042.725.127.203.084.371.208.507.371.135.163.233.377.295.641.062.265.093.571.093.92v5.13h1.72v-5.484c0-.765-.1-1.39-.303-1.873-.202-.484-.506-.844-.911-1.08Zm9.492 5.19a1.98 1.98 0 0 0-.397-.633 2.54 2.54 0 0 0-.59-.464 4.511 4.511 0 0 0-.709-.33c-.18-.056-.357-.115-.531-.177a9.452 9.452 0 0 0-.524-.168c-.174-.05-.343-.104-.506-.16a3.7 3.7 0 0 1-.447-.186 3.007 3.007 0 0 1-.397-.253 1.112 1.112 0 0 1-.286-.321.813.813 0 0 1-.11-.422c0-.18.04-.335.118-.464a.96.96 0 0 1 .354-.329c.158-.09.346-.158.566-.203.22-.044.47-.067.75-.067a5.281 5.281 0 0 1 .887.076c.174.028.348.065.523.11.174.045.351.095.531.152.18.056.343.118.49.185l.118-1.367a7.92 7.92 0 0 0-.633-.236 6.164 6.164 0 0 0-.633-.169 5.057 5.057 0 0 0-.633-.093 7.653 7.653 0 0 0-.616-.025c-.506 0-.967.054-1.383.16a3.488 3.488 0 0 0-1.089.473c-.31.208-.548.472-.717.793-.169.32-.253.7-.253 1.14 0 .314.045.593.135.834.09.242.208.448.354.616.147.17.318.318.515.448.197.129.408.239.633.329a15.301 15.301 0 0 0 .784.261 31.13 31.13 0 0 1 .743.236c.118.04.233.076.346.11.157.056.304.121.439.194.135.073.25.152.346.236a.863.863 0 0 1 .295.667c0 .281-.093.503-.279.667a1.62 1.62 0 0 1-.725.345 4.31 4.31 0 0 1-.954.102c-.18 0-.38-.014-.599-.042a8.927 8.927 0 0 1-.692-.119c-.241-.05-.489-.112-.742-.185a15.064 15.064 0 0 1-.768-.245l.068 1.434c.292.102.56.183.801.245.242.062.473.115.692.16.22.045.433.074.641.085.208.011.42.017.633.017a6.57 6.57 0 0 0 1.4-.144 3.621 3.621 0 0 0 1.148-.447c.326-.202.582-.467.768-.793.186-.326.279-.714.279-1.164 0-.338-.048-.628-.144-.87Z"/></g><defs><clipPath id="a"><path fill="#fff" d="M0 22.969h46.778v12.15H0z"/></clipPath></defs></svg>
